X: 1428
T: An Tulach
R: mazurka
M: 3/4
K: Gmajor
|:B2|cB Ae dc|BD G2 GB|AD F2 FA|BD G2 GB|
cB Ae dc|BD G2 GB|AD F2 FA|G4:|
|:B2|AD F2 FD|BD G2 GB|AD c2 cD|BD G2 GB|
cB Ae dc|BD GF GB|AD F2 FA|G4:|

